assets/icons/edit-2.svg

<svg width="20" height="20" viewBox="0 0 20 20" fill="none" xmlns="http://www.w3.org/2000/svg">
<path d="M11.659 3.50836C12.2551 2.86246 12.5532 2.53952 12.8699 2.35114C13.6342 1.89661 14.5753 1.88247 15.3523 2.31386C15.6743 2.49264 15.9815 2.8065 16.596 3.43421C17.2105 4.06192 17.5178 4.37577 17.6927 4.70474C18.115 5.49849 18.1012 6.45983 17.6562 7.24056C17.4718 7.56413 17.1557 7.86862 16.5234 8.4776L9.00048 15.7234C7.8023 16.8775 7.2032 17.4546 6.45445 17.747C5.7057 18.0394 4.88256 18.0179 3.23629 17.9749L3.0123 17.969C2.51113 17.9559 2.26054 17.9494 2.11487 17.784C1.9692 17.6187 1.98909 17.3634 2.02886 16.853L2.05047 16.5758C2.16241 15.1388 2.21838 14.4204 2.49897 13.7746C2.77955 13.1287 3.26355 12.6044 4.23154 11.5556L11.659 3.50836Z" stroke="currentColor" stroke-width="1.3" stroke-linejoin="round"/>
<path d="M10.7998 3.59961L16.3998 9.19961" stroke="currentColor" stroke-width="1.3" stroke-linejoin="round"/>
<path d="M11.5996 17.999H17.9996" stroke="currentColor" stroke-width="1.3" stroke-linecap="round" stroke-linejoin="round"/>
</svg>

<svg xmlns="http://www.w3.org/2000/svg" width="20" height="20" fill="none" viewBox="0 0 20 20"><path stroke="currentColor" stroke-linejoin="round" stroke-width="1.3" d="M11.659 3.508c.596-.646.894-.968 1.21-1.157a2.49 2.49 0 0 1 2.483-.037c.322.179.63.493 1.244 1.12s.922.942 1.097 1.27a2.63 2.63 0 0 1-.037 2.537c-.184.323-.5.628-1.133 1.237L9 15.723c-1.198 1.155-1.797 1.732-2.546 2.024s-1.571.27-3.218.228l-.224-.006c-.5-.013-.751-.02-.897-.185s-.126-.42-.086-.931l.021-.277c.112-1.437.168-2.156.449-2.801.28-.646.765-1.17 1.733-2.22zM10.8 3.6l5.6 5.6"/><path stroke="currentColor" stroke-linecap="round" stroke-linejoin="round" stroke-width="1.3" d="M11.6 17.999H18"/></svg>
